!!!OTL: 646. Wettstreit.
!!!ARE: Europa, Mitteleuropa, Deutschland
!!!SCT: B0646
!!!TXL: @@DE
!!!YEM: Copyright 1995, estate of Helmut Schaffrath.
**kern	**text
*ICvox	*
*Ivox	*
*clefG2	*
*M4/4	*
*met(c)	*
*k[b-]	*
*F:	*
!LO:TX:a:t=Mäßig geschwind.	!
{4cc	Der
=1	=1
4a	Kuckuk
4cc	.
4a	und
4cc	der
=2	=2
4b-	E-
4b-	-ſel
4r}	.
{4b-	die
=3	=3
4g	hat-
4b-	-ten
4g	bei-
4b-	-de
=4	=4
2a	Streit,
4r}	.
{8ccL	wer
8b-J	.
=5	=5
4a	wohl
4a	am
4a	beſ-
4a	-ten
=6	=6
8b-L	ſän-
8ccJ	.
4b-	-ge,
4r}	.
{8b-L	wer
8aJ	.
=7	=7
4g	wohl
4g	am
4g	beſ-
4g	-ten
=8	=8
8aL	ſän-
8b-J	.
4a	-ge,
4r}	.
{4f	ʒur
=9	=9
4f	ſchö-
4g	-en
4a	Mai-
4b-	-en-
=10	=10
(8ccL	-ʒeit,
8ddJ)	.
4cc	.
4r}	.
{4b-	ʒur
=11	=11
4a	ſchö-
4a	-nen
4g	Mai-
4g	-en-
=12	=12
2f	-ʒeit.
4r}	.
==	==
!!!AGN: Kinder -, Jahreszeiten - Lied, Fruehling, Tier
!!!GTL: Kinderlieder
!!!ONB: ESAC (Essen Associative Code) Database: BOEHME
!!!AMT: simple quadruple
!!!AIN: vox
!!!EED: Helmut Schaffrath
!!!EEV: 1.0
!!Mel. : "Es iſt ein Schuß gefallen. " C. F. Ʒelter. 1810.
!!@@COMMENT:"Hoffmann v. Fallersleben. 1835. Jn vielen Schulheften nachgedruckt."
!!@@END:
!!!Text: H. von Fallersleben
!!!URL-scan: https://archive.org/details/BoehmeVtLieder1895/page/n503/mode/2up
!!!ENC: Anna Maria Matuszewska
!!!EEV: 2024/16/07
*-	*-
